X: 10
M:4/4
L:1/8
K:D
|:e|f2 a2 a3 f|g2 b2 b2 g2|f2 a2 e2 f2|d2 B2 B2 d2|
f2 a2 a3 f|g2 b2 b3 c'|d'2 c'2 c'2 a2|b4 b3 a|
f2 a2 a2 f2|g2 b2 b2 g2|f2 a2 e2 f2|d2 B2 BcdB|

